X:12
T:The Hawk
C:James Hill
S:Nigel Gatherer <gatherer@argonet.co.uk> scots-music 2005-11-27
M:C|
L:1/8
K:E
B | \
e2ge Begf | egfa gbag | f2af cfag | fedc Bc (3dcB |
e2ge Begf | egfa gbag | fefg aBcd |1 eBgf e3 :|2 eBgf e2 ||
|: (3BBB | \
Bbge Bafd | Bged edcB | cBdc edfe | gfag f2fg |
abga fgef | dbca BgAf | defg aBcd |1 eBgf e2 :|2 eBgf e3 |]
